packages/core/src/svgs/nkn.svg

<svg width="24" height="24" viewBox="0 0 24 24" fill="none" xmlns="http://www.w3.org/2000/svg">
<g clip-path="url(#clip0_31_14921)">
<path d="M0 0H24V24H0V0Z" fill="#24397D"/>
<path d="M7.87296 9.1545C9.03439 8.15164 11.9187 6.92592 14.1558 10.0674C12.9558 11.0831 10.0072 12.3259 7.87296 9.1545ZM9.64296 18.8402C8.63153 17.6831 7.37153 14.7945 10.4444 12.4802C11.473 13.6802 12.7501 16.6374 9.64296 18.8402ZM12.2315 14.5459C12.3472 13.0031 13.5172 10.0802 17.3015 10.6888C17.1687 12.2659 15.9644 15.2488 12.2315 14.5459ZM13.4015 5.14307C12.8615 6.09449 12.3987 8.28021 14.8544 9.40735C15.3644 8.40878 15.7844 6.15878 13.4015 5.14307ZM12.2572 15.5188C12.5358 16.5774 13.7272 18.4631 16.2558 17.5245C15.9258 16.4531 14.6615 14.5545 12.2572 15.5188ZM5.57153 13.3288C6.51439 13.8774 8.68296 14.3531 9.80582 11.8802C8.8201 11.3659 6.59153 10.9288 5.57582 13.3288H5.57153ZM9.91725 5.52878C9.85725 6.29164 10.243 7.78307 12.2615 7.6845C12.2615 6.91735 11.803 5.41307 9.91725 5.53307V5.52878ZM15.2572 14.9016C15.7458 15.4845 17.0572 16.2688 18.4244 14.7688C17.893 14.2202 16.513 13.4788 15.2572 14.9016ZM5.98296 16.7316C6.73296 16.8045 8.21582 16.4359 8.15153 14.4002C7.38868 14.3831 5.89296 14.8288 5.98296 16.7316Z" fill="white"/>
</g>
<defs>
<clipPath id="clip0_31_14921">
<rect width="24" height="24" fill="white"/>
</clipPath>
</defs>
</svg>

<svg xmlns="http://www.w3.org/2000/svg" width="24" height="24" fill="none" viewBox="0 0 24 24"><g clip-path="url(#a)"><path fill="#24397D" d="M0 0h24v24H0z"/><path fill="#fff" d="M7.873 9.155c1.161-1.003 4.046-2.23 6.283.912-1.2 1.016-4.149 2.259-6.283-.912m1.77 9.685c-1.011-1.157-2.271-4.046.801-6.36 1.029 1.2 2.306 4.157-.801 6.36m2.589-4.294c.115-1.543 1.285-4.466 5.07-3.857-.133 1.577-1.338 4.56-5.07 3.857m1.17-9.403c-.54.951-1.003 3.137 1.452 4.264.51-.998.93-3.248-1.452-4.264M12.257 15.52c.279 1.058 1.47 2.944 3.999 2.005-.33-1.07-1.594-2.97-3.999-2.005m-6.685-2.19c.942.548 3.111 1.024 4.234-1.449-.986-.514-3.214-.951-4.23 1.449zm4.345-7.8c-.06.763.326 2.254 2.345 2.156 0-.768-.459-2.272-2.345-2.152zm5.34 9.373c.489.583 1.8 1.367 3.167-.133-.531-.549-1.911-1.29-3.167.133m-9.274 1.83c.75.073 2.233-.296 2.169-2.332-.763-.017-2.259.429-2.169 2.332"/></g><defs><clipPath id="a"><path fill="#fff" d="M0 0h24v24H0z"/></clipPath></defs></svg>
